X:118
T:Come Holy Spirit, Lord Our God
%%stretchlast false
M:4/4
L:1/4
K:Eb clef=C1
"^I"[E,G,EB]2 "^IV"[A,,A,Ec] "^I"[E,G,EB] | [E,B,EG] "^V"[B,,B,DB] [B,,B,DF]2 | "^I"[E,B,EG] [E,G,E] [E,B,EG] "^♭v°¹"[C,CE=A] | "^V"[B,,F,DB]2 "^I"[E,G,E] [E,G,EB] | "^IV"[A,,A,Ec]2 "^I"[E,G,EB] [E,B,EG] | "^V"[B,,B,DB] [B,,B,DF]/ "^V7"[B,,A,DF]/ "^vi"[C,G,E] "^IV¹"[C,CEA]/ [D,CEA]/ | "^I"[E,B,EG] "^V"[B,,B,DF]/ "^V7"[B,,A,DF]/ "^vi"[C,G,E]/ [C,E,G,C]/ "^V"[B,,F,B,D] | "^I"[E,,G,B,E]2 [E,G,E] [E,G,E] | "^i"[B,,B,EF] "^V"[B,,B,DF]/ "^iii¹"[B,,B,DG]/ "^IV"[A,,CEA]/ [B,,CEA]/ "^IV¹"[C,CEA]/ [D,CEA]/ | "^I"[E,B,EG] "^vi"[C,CEG]/ "^♭v°¹"[C,CE=A]/ "^V"[B,,F,DB] "^II¹"[=A,,F,CB]/ [G,,F,B,B]/ | "^V/V¹"[=A,,F,CF] "^V"[B,,F,B,D] "^I"[E,,G,B,E] "^V/V"[F,,F,=A,C] | "^V"[B,,D,B,] [B,,D,B,] [B,,D,B,] [B,,D,B,] | "^vi"[C,G,E]/ "^vi7³"[B,,C,G,E]/ "^IV"[A,,C,A,E]/ "^IVmaj7³"[G,,C,A,E]/ "^ii"[F,,C,A,F] "^V"[B,,D,B,F] | "^I"[E,,E,B,G] [E,,G,B,B]2 "^ii¹"[A,,F,CA]/ "^IV"[A,,E,CA]/ | "^I"[E,B,G] "^I¹"[G,,E,B,E] [B,,E,B,F] "^V"[B,,D,B,F] | "^I"[E,,E,B,G]4 | [E,G,EB]2 "^IV"[A,,A,Ec] "^I"[E,G,EB] | [E,B,EG] "^V"[B,,B,DB] [B,,B,DF]2 | "^I"[E,B,EG] [E,G,E] [E,B,EG] "^♭v°¹"[C,CE=A] | "^V"[B,,F,DB]2 "^I"[E,G,E] [E,G,EB] | "^IV"[A,,A,Ec]2 "^I"[E,G,EB] [E,B,EG] | "^V"[B,,B,DB] [B,,B,DF]/ "^V7"[B,,A,DF]/ "^vi"[C,G,E] "^IV¹"[C,CEA]/ [D,CEA]/ | "^I"[E,B,EG] "^V"[B,,B,DF]/ "^V7"[B,,A,DF]/ "^vi"[C,G,E]/ [C,E,G,C]/ "^V"[B,,F,B,D] | "^I"[E,,G,B,E]2 [E,G,E] [E,G,E] | "^i"[B,,B,EF] "^V"[B,,B,DF]/ "^iii¹"[B,,B,DG]/ "^IV"[A,,CEA]/ [B,,CEA]/ "^IV¹"[C,CEA]/ [D,CEA]/ | "^I"[E,B,EG] "^vi"[C,CEG]/ "^♭v°¹"[C,CE=A]/ "^V"[B,,F,DB] "^II¹"[=A,,F,CB]/ [G,,F,B,B]/ | "^V/V¹"[=A,,F,CF] "^V"[B,,F,B,D] "^I"[E,,G,B,E] "^V/V"[F,,F,=A,C] | "^V"[B,,D,B,] [B,,D,B,] [B,,D,B,] [B,,D,B,] | "^vi"[C,G,E]/ "^vi7³"[B,,C,G,E]/ "^IV"[A,,C,A,E]/ "^IVmaj7³"[G,,C,A,E]/ "^ii"[F,,C,A,F] "^V"[B,,D,B,F] | "^I"[E,,E,B,G] [E,,G,B,B]2 "^ii¹"[A,,F,CA]/ "^IV"[A,,E,CA]/ | "^I"[E,,E,B,G] [E,,B,EG] "^ii"[F,,A,CF] "^♯iii"[F,,F,A,F]/ [G,,F,A,F]/ | "^IV"[A,,E,A,C] "^vii°¹"[F,,F,A,D] "^I"[E,,G,E]2 | "^v"[B,,B,]2 "^V¹"[D,F,B,F] "^V"[B,,D,DF] | "^I"[E,,G,B,G] "^v"[F,,=A,B,F]/ "^II"[F,,A,=A,F]/ "^I²"[B,,G,B,E]/ [B,,F,B,E]/4 "^V"[B,,F,B,D]/4 "^vi7³"[B,,E,B,C] | "^V"[B,,D,B,D]2 "^i"[E,,B,EF] "^V²"[F,,B,DF]/ [F,,B,CF]/ | "^iii"[G,,B,G]/ "^vi+²"[A,,B,CG]/ "^♯iii"[B,,A,B,F] "^I"[E,,G,B,E]/ "^vi7¹"[E,,G,B,C]/ "^V"[E,,F,B,D] | "^I"[E,,G,B,E]4 |]
